X:28
T:Fisherman's Lilt
R:hornpipe
Z:id:hn-hornpipe-28
M:C|
K:D
(3ABc|dAFA GBAG|FEFA dFGE|FAdc dcBA|BGEF GABc|
dAFA GBAG|FEFA dFGE|FAdf gecd|(3efe dc d2:|
|:de|fddc dfaf|edcd efge|fddc dfaf|(3gfe (3dcB ADFA|
BG~G2 BG (3Bcd|AF (3ABc defd|Afed Bgec|dfec d2:|

